icons/ghost.svg

<svg width="24" height="24" viewBox="0 0 24 24" fill="none" xmlns="http://www.w3.org/2000/svg">
<path d="M5.01399 10.422C5.01399 8.453 5.74999 6.566 7.05999 5.174C8.36999 3.782 10.147 3 12 3C13.853 3 15.63 3.782 16.94 5.174C18.25 6.566 18.986 8.454 18.986 10.422V17.844C19.033 18.244 18.959 18.649 18.773 19.001C18.5928 19.3475 18.306 19.6269 17.955 19.798C17.609 19.964 17.222 20.008 16.851 19.923C16.4746 19.8355 16.1376 19.6263 15.892 19.328C15.7408 19.1211 15.5441 18.9517 15.317 18.833C15.0939 18.7173 14.8463 18.6569 14.595 18.6569C14.3437 18.6569 14.0961 18.7173 13.873 18.833C13.6455 18.9516 13.4485 19.121 13.297 19.328C13.143 19.538 12.947 19.707 12.722 19.823C12.4989 19.9388 12.2513 19.9992 12 19.9992C11.7487 19.9992 11.501 19.9388 11.278 19.823C11.0509 19.7043 10.8541 19.535 10.703 19.328C10.5515 19.121 10.3544 18.9516 10.127 18.833C9.90392 18.7173 9.6563 18.6569 9.40499 18.6569C9.15369 18.6569 8.90607 18.7173 8.68299 18.833C8.45591 18.9517 8.25917 19.1211 8.10799 19.328C7.85599 19.63 7.51999 19.838 7.14899 19.923C6.77747 20.0077 6.38817 19.9637 6.04499 19.798C5.69396 19.6269 5.4072 19.3475 5.22699 19.001C5.04083 18.6457 4.96658 18.2423 5.01399 17.844V10.422" stroke="white" stroke-width="2" stroke-linecap="round" stroke-linejoin="round"/>
<path d="M10 9H10.01" stroke="white" stroke-width="2" stroke-linecap="round" stroke-linejoin="round"/>
<path d="M14 9H14.01" stroke="white" stroke-width="2" stroke-linecap="round" stroke-linejoin="round"/>
<path d="M12 15C12.2761 15 12.5 14.5523 12.5 14C12.5 13.4477 12.2761 13 12 13C11.7239 13 11.5 13.4477 11.5 14C11.5 14.5523 11.7239 15 12 15Z" stroke="white" stroke-width="2" stroke-linecap="round" stroke-linejoin="round"/>
<circle cx="10" cy="9" r="0.5" stroke="white" stroke-width="2" stroke-linecap="round" stroke-linejoin="round"/>
<circle cx="14" cy="9" r="0.5" stroke="white" stroke-width="2" stroke-linecap="round" stroke-linejoin="round"/>
</svg>

<svg
  width="24"
  height="24"
  viewBox="0 0 24 24"
  xmlns="http://www.w3.org/2000/svg"
  fill="none"
  stroke="currentColor"
  stroke-width="2"
  stroke-linecap="round"
  stroke-linejoin="round"
>
  <path d="M5.014 10.422c0-1.969.736-3.856 2.046-5.248C8.37 3.782 10.147 3 12 3c1.853 0 3.63.782 4.94 2.174 1.31 1.392 2.046 3.28 2.046 5.248v7.422c.047.4-.027.805-.213 1.157a1.822 1.822 0 0 1-.818.797c-.346.166-.733.21-1.104.125a1.758 1.758 0 0 1-.959-.595 1.671 1.671 0 0 0-.575-.495 1.568 1.568 0 0 0-1.444 0 1.671 1.671 0 0 0-.576.495c-.154.21-.35.379-.575.495a1.567 1.567 0 0 1-1.444 0 1.669 1.669 0 0 1-.575-.495 1.671 1.671 0 0 0-.576-.495 1.568 1.568 0 0 0-1.444 0 1.671 1.671 0 0 0-.575.495c-.252.302-.588.51-.959.595a1.68 1.68 0 0 1-1.104-.125 1.822 1.822 0 0 1-.818-.797 1.987 1.987 0 0 1-.213-1.157v-7.422" />
  <path d="M10 9h.01" />
  <path d="M14 9h.01" />
  <ellipse cx="12" cy="14" rx=".5" ry="1" />
</svg>
